x-pack/solutions/observability/plugins/infra/public/images/hosts.svg

<?xml version="1.0" encoding="UTF-8"?>
<svg width="32px" height="32px" viewBox="0 0 32 32" version="1.1" xmlns="http://www.w3.org/2000/svg" xmlns:xlink="http://www.w3.org/1999/xlink">
    <!-- Generator: Sketch 48.2 (47327) - http://www.bohemiancoding.com/sketch -->
    <title>picto-server-orange</title>
    <desc>Created with Sketch.</desc>
    <defs></defs>
    <g id="icon/apps/color/hosts" stroke="none" stroke-width="1" fill="none" fill-rule="evenodd">
        <g id="picto-server-orange" fill="#0379a5" fill-rule="nonzero">
            <path d="M24.0002688,2.14591806 C16.3528459,-2.26974872 6.56958423,0.346053883 2.14591806,8.00147617 C-2.26974872,15.6568985 0.346053883,25.4401602 8.00147617,29.8558269 C15.6488991,34.2714937 25.4321608,31.6476917 29.8558269,24.0002688 C34.2714937,16.3448465 31.6476917,6.56158483 24.0002688,2.14591806 Z M21.6451613,22.4516129 C21.6451613,23.7367742 20.6307957,24.7741935 19.3741935,24.7741935 L12.5612903,24.7741935 C11.3046882,24.7741935 10.2903226,23.7367742 10.2903226,22.4516129 L10.2903226,8.51612903 C10.2903226,7.23096774 11.3046882,6.19354839 12.5612903,6.19354839 L19.3741935,6.19354839 C20.6307957,6.19354839 21.6451613,7.23096774 21.6451613,8.51612903 L21.6451613,22.4516129 Z M18.6262934,12.9145165 L13.3011707,12.9145165 C12.7798861,12.9145165 12.3548387,12.4577652 12.3548387,11.8822584 C12.3548387,11.3158868 12.7798861,10.8500004 13.3011707,10.8500004 L18.6343131,10.8500004 C19.1555977,10.8500004 19.5806452,11.3158868 19.5806452,11.8822584 C19.5726254,12.4577652 19.147578,12.9145165 18.6262934,12.9145165 Z M18.6262934,10.3225806 L13.3011707,10.3225806 C12.7798861,10.3225806 12.3548387,9.86582929 12.3548387,9.29032258 C12.3548387,8.7239509 12.7798861,8.25806452 13.3011707,8.25806452 L18.6343131,8.25806452 C19.1555977,8.25806452 19.5806452,8.71481587 19.5806452,9.29032258 C19.5726254,9.86582929 19.147578,10.3225806 18.6262934,10.3225806 Z M18.6262934,15.483871 L13.3011707,15.483871 C12.7798861,15.483871 12.3548387,15.0230415 12.3548387,14.4516129 C12.3548387,13.8801843 12.7798861,13.4193548 13.3011707,13.4193548 L18.6343131,13.4193548 C19.1555977,13.4193548 19.5806452,13.8801843 19.5806452,14.4516129 C19.5726254,15.0230415 19.147578,15.483871 18.6262934,15.483871 Z M14.4193548,21.6774194 C14.4193548,22.2486022 13.9582796,22.7096774 13.3870968,22.7096774 C12.815914,22.7096774 12.3548387,22.2486022 12.3548387,21.6774194 C12.3548387,21.1062366 12.815914,20.6451613 13.3870968,20.6451613 C13.9582796,20.6451613 14.4193548,21.1062366 14.4193548,21.6774194 Z" id="Shape"></path>
        </g>
    </g>
</svg>

<svg xmlns="http://www.w3.org/2000/svg" width="32" height="32"><path fill="#0379a5" fill-rule="nonzero" d="M24 2.146C16.353-2.27 6.57.346 2.146 8-2.27 15.657.346 25.441 8 29.856 15.65 34.27 25.432 31.648 29.856 24 34.27 16.345 31.648 6.562 24 2.146m-2.355 20.306c0 1.285-1.014 2.322-2.27 2.322H12.56c-1.256 0-2.27-1.037-2.27-2.322V8.516c0-1.285 1.014-2.322 2.27-2.322h6.813c1.257 0 2.271 1.037 2.271 2.322zm-3.019-9.537h-5.325c-.521 0-.946-.457-.946-1.033 0-.566.425-1.032.946-1.032h5.333c.522 0 .947.466.947 1.032-.008.576-.433 1.033-.955 1.033m0-2.592h-5.325c-.521 0-.946-.457-.946-1.033 0-.566.425-1.032.946-1.032h5.333c.522 0 .947.457.947 1.032-.008.576-.433 1.033-.955 1.033m0 5.16h-5.325c-.521 0-.946-.46-.946-1.031 0-.572.425-1.033.946-1.033h5.333c.522 0 .947.461.947 1.033-.008.571-.433 1.032-.955 1.032m-4.207 6.194a1.03 1.03 0 0 1-1.032 1.033 1.03 1.03 0 0 1-1.032-1.033 1.03 1.03 0 0 1 1.032-1.032 1.03 1.03 0 0 1 1.032 1.032"/></svg>
